X:1
T:Riga, 10.10 D
T:Riga, 10.10 D
T:Robert Lowry, 1877
T:Public Domain Courtesy of the Cyber Hymnal™
C:Robert Lowry, 1877
Z:Public Domain
Z:Courtesy of the Cyber Hymnal™
%%score ( 1 2 ) ( 3 4 )
L:1/8
Q:1/4=115
M:4/4
K:Ab
V:1 treble 
V:2 treble 
V:3 bass 
V:4 bass 
V:1
 [EA]4 [FA]3 [DF] | [CE]6 [EA]2 | [EG]2 [EA]2 [Ed]2 [Ec]2 | [EB]8 | [CA]4 [EA]3 [EG] | %5
 [DF]6 [EF]2 | [FB]2 B2 [CA]2 [FB]2 | [=Ec]8 | [Fd]4 [EG]3 [EG] | ([EA]4 [CE]2) [Ec]2 | %10
 [Ed]2 [EG]2 [EF]2 [EG]2 | ([EA]4 [CE]4) | [Ec]4 [DB]3 [CA] | [Fd]6 [Fd]2 | %14
 [Fc]2 [FB]2 [EA]2 [DG]2 | [CA]8 |] %16
V:2
 x8 | x8 | x8 | x8 | x8 | x8 | x2 (ED) x4 | x8 | x8 | x8 | x8 | x8 | x8 | x8 | x8 | x8 |] %16
V:3
 [A,,C]4 [D,A,]3 [D,A,] | [A,,A,]6 [A,,C]2 | B,2 [C,A,]2 [B,,G,]2 [A,,A,]2 | [E,G,]8 | %4
 [F,A,]4 [C,A,]3 [C,A,] | [D,A,]6 [C,=A,]2 | [B,,D]2 [E,G,]2 [F,A,]2 [D,F,]2 | [C,G,]8 | %8
 [B,,B,]4 [E,D]3 [E,D] | (C4 A,2) A,2 | [E,B,]2 [E,D]2 [E,D]2 [E,D]2 | (C4 A,4) | %12
 A,4 [E,G,]3 [F,A,] | [D,A,]6 [B,,B,]2 | [C,E]2 [D,D]2 [E,C]2 [E,B,]2 | [A,,A,]8 |] %16
V:4
 x8 | x8 | (E,D,) x6 | x8 | x8 | x8 | x8 | x8 | x8 | A,,6 A,2 | x8 | A,,8 | A,4 x4 | x8 | x8 | %15
 x8 |] %16

